!!!COM: alter-bridge
!!!OTL: ghost-of-days-gone-by
!!!RNB: hooktheoryid: pJkmZKp_gqn
**kern	**text
*clefG2	*
*k[b-e-a-d-g-]	*
*M4/4	*
=1	=1
2r	Ab
8d-	.
4a-	.
[8a-	.
=2	=2
2.a-]	Gb
8b-	.
[8b-	.
=3	=3
2b-]	Gb
8d-	.
4a-	.
[8a-	.
=4	=4
2.a-]	Ebm
8b-	.
[8g-	.
=5	=5
2g-]	Ebm
4d-	.
8e-	.
8f	.
=6	=6
4f	Bbm
8g-	.
4.f	.
8g-	.
[8f	.
=7	=7
8f]	Bbm
4g-	.
4.f	.
8d-	.
8e-	.
=8	=8
8f	Ab
4.e-	.
2r	.
*-	*-